images/content/catalog-6.svg

<svg width="133" height="70" viewBox="0 0 133 70" fill="none" xmlns="http://www.w3.org/2000/svg">
<path d="M12.0523 0.257913C6.50738 0.745213 1.83838 1.85073 0.575275 2.93033C-0.147425 3.54653 -0.147425 3.54653 0.342875 4.08653C0.987375 4.80623 4.05628 5.73151 7.59048 6.32281C11.5885 6.99081 20.1003 7.01622 21.3136 6.37412C22.5255 5.70612 22.9376 4.96048 22.9376 3.39268C22.9376 1.77398 22.3185 0.976689 20.7198 0.540189C19.274 0.154289 14.9415 1.33812e-05 12.0523 0.257913Z" fill="#363636"/>
<path d="M25.7745 0.488281C25.6451 0.771481 25.5162 2.5962 25.5162 4.6001C25.5162 8.6611 25.6715 8.3784 23.3243 8.5332L22.2935 8.6103L22.0352 13.6986L20.8487 13.9818C18.2696 14.6498 16.8497 16.577 17.0572 19.2762C17.1851 21.2034 18.088 22.617 19.6358 23.3631C20.7447 23.8763 21.1055 23.9012 30.8819 23.9012C36.4268 23.9012 41.0191 23.9798 41.0704 24.0819C41.1212 24.2103 39.961 33.4891 38.4908 44.7206C37.046 55.9511 35.8077 65.7177 35.7823 66.3866C35.731 68.0038 36.6085 69.0077 38.13 69.0077C39.3673 69.0077 40.1417 68.3661 40.4513 67.1063C40.5807 66.5926 41.9469 56.7733 43.4694 45.285C44.9914 33.8221 46.3322 24.4163 46.4098 24.4163C46.5128 24.4163 47.4928 25.8294 48.6022 27.552C51.5421 32.178 51.0011 31.8689 56.2375 31.8689H60.5959V37.4987L55.4631 37.5758C50.7429 37.6529 50.2531 37.7028 49.5818 38.191C48.009 39.3482 47.9568 39.606 47.9568 49.1676C47.9568 58.7018 47.9832 58.9596 49.4793 60.2174L50.3304 60.9127H81.6956L82.5462 60.2174C84.0423 58.9596 84.0667 58.7018 84.0667 49.1676C84.0667 39.6061 84.0159 39.3483 82.4437 38.191C81.7728 37.7027 81.2826 37.6529 76.5619 37.5758L71.4301 37.4987V31.8689H75.7895C81.0239 31.8689 80.4829 32.178 83.4233 27.552C84.5337 25.8293 85.5131 24.4163 85.6167 24.4163C85.6929 24.4163 87.0356 33.8221 88.5562 45.285C90.0787 56.7733 91.4458 66.5926 91.5748 67.1063C91.8844 68.3661 92.6568 69.0077 93.8961 69.0077C95.4176 69.0077 96.2955 68.0038 96.2428 66.3866C96.2174 65.7177 94.9791 55.9511 93.5338 44.7206C92.065 33.4892 90.9029 24.2103 90.9557 24.0819C91.0065 23.9798 95.5973 23.9012 101.145 23.9012C110.921 23.9012 111.281 23.8763 112.389 23.3631C113.937 22.617 114.839 21.2034 114.968 19.2762C115.175 16.577 113.757 14.6497 111.177 13.9818L109.99 13.6986L109.734 8.6103L108.702 8.5332C106.355 8.3784 106.508 8.6611 106.508 4.6001C106.508 2.5962 106.38 0.771481 106.252 0.488281C106.045 0.128381 105.709 0 104.884 0C104.265 0 103.646 0.128394 103.464 0.308594C103.258 0.514194 103.155 1.77392 103.155 4.24072C103.155 6.70802 103.052 7.9678 102.845 8.1728C102.666 8.3525 101.944 8.48091 101.196 8.48091C99.5699 8.48091 99.5445 8.53311 99.5445 11.5913V13.8784H32.4806V11.5913C32.4806 8.53321 32.4557 8.48091 30.8307 8.48091C30.0822 8.48091 29.3605 8.3525 29.1803 8.1728C28.9728 7.9677 28.8702 6.70802 28.8702 4.24072C28.8702 1.77392 28.7672 0.514094 28.5606 0.308594C28.3799 0.128394 27.7603 0 27.1417 0C26.317 0 25.9815 0.128481 25.7745 0.488281ZM68.6173 40.6084C71.506 41.5068 74.0089 44.001 74.7833 46.7764C75.2218 48.3194 75.0929 50.9922 74.4991 52.5596C73.8028 54.4346 71.8145 56.5694 69.9337 57.4951C68.6437 58.1367 68.1798 58.2139 66.0128 58.2139C63.8463 58.2139 63.3819 58.1368 62.0924 57.4951C60.2081 56.5693 58.2233 54.4346 57.5265 52.5596C56.9337 50.9922 56.8038 48.3194 57.2428 46.7764C57.9908 44.0528 60.4923 41.5069 63.3043 40.6084C65.3165 39.9659 66.6046 39.9659 68.6173 40.6084Z" fill="#363636"/>
<path d="M63.794 44.4375C61.7574 45.3633 60.2872 48.0869 60.7252 50.168C61.4991 53.8448 65.5484 55.7207 68.7208 53.8701C70.7062 52.7119 71.712 50.3232 71.172 48.0869C70.6036 45.6963 68.4376 43.9492 66.0128 43.9492C65.3673 43.9493 64.3873 44.1807 63.794 44.4375Z" fill="#363636"/>
<path d="M36.0919 0.154283C32.1715 0.822283 31.5787 1.28518 31.5787 3.59808C31.5787 5.42278 32.0426 6.0141 33.8468 6.5537C35.3966 7.0161 41.0192 7.06787 44.3468 6.68207C51.2076 5.85977 55.6686 4.13766 54.0455 2.93006C52.7804 2.03016 49.1432 1.05358 44.9913 0.539977C42.5157 0.231977 36.9952 -1.67042e-05 36.0919 0.154283Z" fill="#363636"/>
<path d="M89.4845 0.257917C83.1652 0.848217 77.6202 2.339 77.6202 3.4439C77.6202 5.1661 85.461 6.91361 93.2501 6.93951C99.0538 6.93951 100.446 6.2974 100.446 3.5982C100.446 1.774 99.8273 0.976616 98.0734 0.514216C96.4239 0.102616 92.3985 1.71959e-05 89.4845 0.257917Z" fill="#363636"/>
<path d="M112.776 0.283308C110.996 0.514308 109.758 1.05383 109.346 1.77403C108.959 2.54453 109.036 4.67781 109.5 5.34581C110.428 6.65681 111.152 6.81109 116.568 6.81109C120.23 6.81109 122.37 6.68221 124.435 6.32281C127.969 5.73151 131.038 4.80623 131.683 4.08653C132.173 3.54653 132.173 3.54653 131.45 2.93033C130.109 1.79943 125.492 0.745217 119.534 0.257917C116.053 -0.0252828 115.046 -0.0252922 112.776 0.283308Z" fill="#363636"/>
</svg>

<svg width="133" height="70" fill="none" xmlns="http://www.w3.org/2000/svg"><path d="M12.052.258C6.507.745 1.838 1.85.575 2.93c-.722.617-.722.617-.232 1.157.644.72 3.713 1.645 7.247 2.236 3.998.668 12.51.693 13.724.051 1.212-.668 1.624-1.414 1.624-2.981 0-1.619-.62-2.416-2.218-2.853C19.274.154 14.942 0 12.052.258zM25.774.488c-.129.283-.258 2.108-.258 4.112 0 4.061.156 3.778-2.192 3.933l-1.03.077-.259 5.089-1.186.283c-2.58.668-4 2.595-3.792 5.294.128 1.927 1.031 3.341 2.579 4.087 1.109.513 1.47.538 11.246.538 5.545 0 10.137.079 10.188.18.051.13-1.109 9.408-2.58 20.64-1.444 11.23-2.682 20.997-2.708 21.666-.051 1.617.827 2.62 2.348 2.62 1.237 0 2.012-.64 2.321-1.9.13-.514 1.496-10.334 3.018-21.822 1.522-11.463 2.863-20.869 2.94-20.869.104 0 1.084 1.413 2.193 3.136 2.94 4.626 2.4 4.317 7.636 4.317h4.358v5.63l-5.133.077c-4.72.077-5.21.127-5.881.615-1.573 1.157-1.625 1.415-1.625 10.977 0 9.534.026 9.792 1.522 11.05l.851.695h31.366l.85-.696c1.496-1.257 1.52-1.515 1.52-11.05 0-9.56-.05-9.819-1.622-10.976-.671-.488-1.161-.538-5.882-.615l-5.132-.077v-5.63h4.36c5.234 0 4.693.309 7.633-4.317 1.11-1.723 2.09-3.136 2.194-3.136.076 0 1.419 9.406 2.94 20.869 1.522 11.488 2.889 21.308 3.018 21.821.31 1.26 1.082 1.902 2.321 1.902 1.522 0 2.4-1.004 2.347-2.621-.026-.67-1.264-10.436-2.71-21.666-1.468-11.232-2.63-20.51-2.577-20.64.05-.101 4.641-.18 10.189-.18 9.776 0 10.136-.025 11.244-.538 1.548-.746 2.45-2.16 2.579-4.087.207-2.699-1.211-4.626-3.791-5.294l-1.187-.283-.256-5.089-1.032-.077c-2.347-.155-2.194.128-2.194-3.933 0-2.004-.128-3.829-.256-4.112-.207-.36-.543-.488-1.368-.488-.619 0-1.238.128-1.42.309-.206.205-.309 1.465-.309 3.932 0 2.467-.103 3.727-.31 3.932-.179.18-.901.308-1.649.308-1.626 0-1.651.052-1.651 3.11v2.287H32.48v-2.287c0-3.058-.025-3.11-1.65-3.11-.749 0-1.47-.129-1.65-.308-.208-.205-.31-1.465-.31-3.932 0-2.467-.104-3.727-.31-3.932C28.38.129 27.76 0 27.14 0c-.824 0-1.16.128-1.366.488zm42.843 40.12c2.889.899 5.392 3.393 6.166 6.168.439 1.543.31 4.216-.284 5.784-.696 1.875-2.684 4.01-4.565 4.935-1.29.642-1.754.719-3.921.719s-2.631-.077-3.92-.719c-1.885-.926-3.87-3.06-4.567-4.935-.592-1.568-.722-4.24-.283-5.784.748-2.723 3.25-5.27 6.061-6.168 2.013-.642 3.3-.642 5.313 0z" fill="#363636"/><path d="M63.794 44.438c-2.037.925-3.507 3.649-3.069 5.73.774 3.677 4.823 5.553 7.996 3.702 1.985-1.158 2.991-3.547 2.451-5.783-.568-2.39-2.734-4.138-5.16-4.138-.645 0-1.625.232-2.218.489zM36.092.154c-3.92.668-4.513 1.131-4.513 3.444 0 1.825.464 2.416 2.268 2.956 1.55.462 7.172.514 10.5.128 6.86-.822 11.322-2.544 9.698-3.752-1.265-.9-4.902-1.876-9.054-2.39-2.475-.308-7.996-.54-8.9-.386zM89.484.258C83.165.848 77.62 2.339 77.62 3.444c0 1.722 7.841 3.47 15.63 3.496 5.804 0 7.196-.643 7.196-3.342 0-1.824-.619-2.621-2.373-3.084C96.423.103 92.4 0 89.485.258zM112.776.283c-1.78.231-3.018.77-3.43 1.491-.387.77-.31 2.904.154 3.572.928 1.31 1.652 1.465 7.068 1.465 3.662 0 5.802-.129 7.867-.488 3.534-.591 6.603-1.517 7.248-2.236.49-.54.49-.54-.233-1.157-1.341-1.13-5.958-2.185-11.916-2.672-3.481-.283-4.488-.283-6.758.025z" fill="#363636"/></svg>
